chains/zircuit/logo.svg

<svg width="512" height="512" viewBox="0 0 512 512" fill="none" xmlns="http://www.w3.org/2000/svg">
<path fill-rule="evenodd" clip-rule="evenodd" d="M50 256.51C50 142.455 142.183 50 255.883 50C369.603 50 461.787 142.455 461.776 256.5C461.776 296.896 450.208 334.579 430.221 366.4C424.711 375.168 418.572 383.488 411.845 391.312L256.157 235.164L122.278 369.427L100.174 391.596C93.4275 383.793 87.2685 375.482 81.7577 366.725C61.6394 334.843 50 297.038 50 256.51ZM406.618 336.976L408.503 333.197L408.513 333.207C420.324 309.575 426.564 283.048 426.564 256.51C426.564 162.125 350.001 85.3361 255.893 85.3361C161.785 85.3361 85.2323 162.125 85.2323 256.51C85.2323 283.19 91.5332 309.829 103.456 333.553L105.351 337.312L256.157 186.061L406.618 336.976ZM255.891 463C307.149 463 354.041 444.214 390.084 413.125V413.115L256.165 278.801L121.992 413.359C157.984 444.316 204.633 463 255.891 463Z" fill="url(#paint0_linear_6469_19394)"/>
<defs>
<linearGradient id="paint0_linear_6469_19394" x1="255.888" y1="50" x2="256.499" y2="463" gradientUnits="userSpaceOnUse">
<stop stop-color="#169E00"/>
<stop offset="0.49" stop-color="#00C537"/>
<stop offset="1" stop-color="#00B1C9"/>
</linearGradient>
</defs>
</svg>

<svg xmlns="http://www.w3.org/2000/svg" width="512" height="512" fill="none"><path fill="url(#a)" fill-rule="evenodd" d="M50 256.51C50 142.455 142.183 50 255.883 50c113.72 0 205.904 92.455 205.893 206.5 0 40.396-11.568 78.079-31.555 109.9a207.743 207.743 0 0 1-18.376 24.912L256.157 235.164 122.278 369.427l-22.104 22.169a204.83 204.83 0 0 1-18.416-24.871C61.639 334.843 50 297.038 50 256.51Zm356.618 80.466 1.885-3.779.01.01c11.811-23.632 18.051-50.159 18.051-76.697 0-94.385-76.563-171.174-170.671-171.174-94.108 0-170.66 76.789-170.66 171.174 0 26.68 6.3 53.319 18.223 77.043l1.895 3.759 150.806-151.251 150.461 150.915ZM255.891 463c51.258 0 98.15-18.786 134.193-49.875v-.01L256.165 278.801 121.992 413.359C157.984 444.316 204.633 463 255.891 463Z" clip-rule="evenodd"/><defs><linearGradient id="a" x1="255.888" x2="256.499" y1="50" y2="463" gradientUnits="userSpaceOnUse"><stop stop-color="#169E00"/><stop offset=".49" stop-color="#00C537"/><stop offset="1" stop-color="#00B1C9"/></linearGradient></defs></svg>
